X:1
T:Ay que contento (Amante felice)
T:Giovanni Stefani
T:Source : Affetti amorosi-Canzonette ad una voce sola---Venetia---A.Vincenti---1621. Editor : André Vierendeels (04/11/15).
T:Notes : Original clefs : C1, F4 Terza impressione (first print: 1618) Alfabeto et intavolature per chitarra Spagnola Note values have been halved 
T:Vilanelle Spagnola
T:Ay que contento (Amante felice)
T:©
T:©
T:©
C:Giovanni Stefani
Z:©
%%score 1 ( 2 3 ) 4
L:1/8
Q:1/4=120
M:3/4
K:F
V:1 treble nm="Soprano" snm="S"
V:2 treble nm="MusicXML Part"
V:3 treble 
V:4 bass nm="MusicXML Part"
V:1
 z4 A2 | G4 F2 | F4 E2 | F6 | z4 d2 | c4 B2 | B4 A2 | B4 AB | c2 GA B2- | B2 c2 A2 | G2 DE F2- | %11
w: Ay|que con-|ten- *|to,|Ay|que con-|ten- *|to, qu'e ne|l'al, qu'e ne l'al-|* ma sien-|to, qu'e ne l'al-|
w: Ay|que a-|le- gri-|a:|sien-|t'e- st'al|ma mi-|a, de- ver-|me, de- ver- me|_ mu- da-|do, de- ver- me|
w: Ay|que ven-|tu- *|ra,|Ay|que ven-|tu- *|ra, goz- *|zo, go- * zo|_ se- gu-|ra, go- * zo,|
 F2 G2 E2 | F6 | B2 B2 B2 | B2 A2 A2 | A2 A2 G2 | F2 G2 G2 | G2 c2 c2 | c2 c2 =B2 | c4 G2 | %20
w: * ma sien-|to,|des- pues qu'a-|mor qui- so|con dar- me|a vi- so|li- brar me|de'in- fier- *|no, Y|
w: _ mu- da-|do,|mu- y en|cun- bra- do|tan al- to|y di- chos-|so, que ten-|go de- ver-|me, en|
w: _ se- gu-|ra,|Y e'l mar|de mi bur-|lan- do me|an- da- va|dex- an- do,|sen- tad'n la|re- na,|
 G3 F G2 | A2 B4 | A2 G4 | F2 F4 | z4 A2 | c2 c2 c2 | B2 B2 B2 | A2 A2 A2 | G2 G2 G2 | B4 B2 | A6 | %31
w: dar- me des-|cans- so'en|su pa-|ray- so,|que|fe- a, que|fe- a la|vi- da, la|vi- da se-|gu- ra'y|e-|
w: mun- * *|do des-|can fa-|* do,|i-|des- ta, i-|des- ta mu-|dan- za, mu-|dan- za mas|du- ra'in-|vi-|
w: ya _ _|stoi des-|can fa-|* do,|i-|des- ta, i-|des- ta mu-|dan- za, mu-|dan- za mas|du ra'in-|vi-|
 G4 F2 | F2 F2 F2 | G4 F2 | F6 |] %35
w: ter- na,|se- gu- ra'y|e- ter-|na.|
w: dio- sa,|mas du- ra'in-|vi- dio-|sa.|
w: dio- sa,|mas du- ra'in-|vi- dio-|sa.|
V:2
 c6 | =B4 c2 | B4 G2 | A6 | F4 A2 | G4 F2 | G4 F2 | F4 A2 | G2 G2 B2- | B2 G2 ^F2 | G4 F2- | %11
 F2 G2 G2 | A6 | B6 | B2 A4 | A4 G2 | A2 G4 | G6 | G2 d4 | c6 | G6 | c2 d4 | c2 c4 | c6 | A6 | F6 | %26
 B6 | d6 | B6 | B4 G2 | A6 | =B4 A2 | F6 | c6 | A6 |] %35
V:3
 A6 | D4 E2 | F4 E2 | C6 | D6 | E4 D2 | B,4 C2 | D4 C2 | C2 B,2 D2 | G2 _E2 D2 | =B,4 A,2- | %11
 A,2 D2 E2 | F6 | D6 | G2 ^F4 | ^F2 D2 C2 | C2 E4 | E6 | E2 D4 | E6 | E6 | G2 F4 | F2 E4 | A6 | %24
 F6 | C6 | D6 | ^F4 G2 | _E4 G2 | D6 | ^F6 | D4 C2 | D4 C2 | E4 C2 | C6 |] %35
V:4
 F,,6 | G,,4 A,,2 | B,,4 C,2 | F,,6 | B,,6 | C,4 D,2 | _E,4 F,2 | B,,4 F,2 | C,2 _E,2 G,2 | %9
 C,4 D,2 | G,,4 D,2 | D,2 B,,2 C,2 | F,,6 | G,,6 | G,,2 D,4 | D,4 E,2 | F,2 C,4 | C,6 | C,2 G,4 | %19
 C,6 | C,6 | F,2 B,,4 | F,2 C,4 | F,,6 | F,,6 | F,,6 | G,,6 | D,6 | _E,6 | B,,6 | D,6 | G,,4 A,,2 | %32
 B,,4 A,,2 | C,6 | F,,6 |] %35

